svg/fluentui-system-icons/ic_fluent_image_table_48_regular.svg

<svg width="48" height="48" viewBox="0 0 48 48" fill="none" xmlns="http://www.w3.org/2000/svg">
<path d="M26.5 19C26.5 17.6193 27.6193 16.5 29 16.5C30.3807 16.5 31.5 17.6193 31.5 19C31.5 20.3807 30.3807 21.5 29 21.5C27.6193 21.5 26.5 20.3807 26.5 19ZM6 12.25C6 8.79822 8.79822 6 12.25 6H35.75C39.2018 6 42 8.79822 42 12.25V35.75C42 39.2018 39.2018 42 35.75 42H12.25C8.79822 42 6 39.2018 6 35.75V12.25ZM8.5082 12H12V8.5082C10.1281 8.63141 8.63141 10.1281 8.5082 12ZM14.5 8.5V12H33.5V8.5H14.5ZM36 8.5082V12H39.4918C39.3686 10.1281 37.8719 8.63141 36 8.5082ZM39.5 14.5H36V33.5H39.5V14.5ZM39.4918 36H36V39.4918C37.8719 39.3686 39.3686 37.8719 39.4918 36ZM33.5 39.5V36H14.5V39.5H33.5ZM12 39.4918V36H8.5082C8.63141 37.8719 10.1281 39.3686 12 39.4918ZM8.5 33.5H12V14.5H8.5V33.5ZM14.5 31.9467L21.3483 25.0984C22.8128 23.6339 25.1872 23.6339 26.6516 25.0983L33.5 31.9467V14.5H14.5V31.9467ZM31.5178 33.5L24.8839 26.8661C24.3957 26.378 23.6043 26.378 23.1161 26.8661L16.4822 33.5H31.5178Z" fill="#212121"/>
</svg>

<svg xmlns="http://www.w3.org/2000/svg" width="48" height="48"><path d="M26.5 19a2.5 2.5 0 1 1 5 0 2.5 2.5 0 0 1-5 0ZM6 12.25A6.25 6.25 0 0 1 12.25 6h23.5A6.25 6.25 0 0 1 42 12.25v23.5A6.25 6.25 0 0 1 35.75 42h-23.5A6.25 6.25 0 0 1 6 35.75v-23.5ZM8.508 12H12V8.508A3.75 3.75 0 0 0 8.508 12ZM14.5 8.5V12h19V8.5h-19Zm21.5.008V12h3.492A3.75 3.75 0 0 0 36 8.508Zm3.5 5.992H36v19h3.5v-19ZM39.492 36H36v3.492A3.75 3.75 0 0 0 39.492 36ZM33.5 39.5V36h-19v3.5h19ZM12 39.492V36H8.508A3.75 3.75 0 0 0 12 39.492ZM8.5 33.5H12v-19H8.5v19Zm6-1.553 6.848-6.849a3.75 3.75 0 0 1 5.304 0l6.848 6.849V14.5h-19v17.447ZM31.518 33.5l-6.634-6.634a1.25 1.25 0 0 0-1.768 0L16.482 33.5h15.036Z"/></svg>
